X: 1
T: Old Pigeon On The Gate, The
M: 4/4
L: 1/8
R: reel
K: Gmaj
|: dG G2 dGeG | d2 de dcAB | cF F2 cF F2 | (3Bcd ed cABc |
dg g2 dgeg | d2 de dcAG | FGAd fdeg | fdcA G4 :|
|: dggf gagf | dg g2 bgaf | dffe fgfe | df f2 afgf |
dggf gagf | dg g2 bgaf | dcde fdeg | fdcA G4 :|
